X: 545
T: Abdelazer Rondeau, The
R: three-two
M: 3/2
K: Dminor
|:D4 F4 A4|d2ef gfed ^c4|a2df afd2 b4|g2ce gec2 a4|
f2Bd fdB2 g4|e2A^c ecA2 f4|efed ^c2f2 efed|A2d2 ^cded d4:|
|:F4 A4 c4|f2ga bagf e4|a2ba g2ag f2FG|A2BA G2AG F2fe|
d2ed c2dc B2gf|e2fe d2ed c2ag|f2gf e2fe d2g2|c2f2 efgf f4:|
D4 F4 A4|d2ef gfed ^c4|a2df afd2 b4|g2ce gec2 a4|
f2Bd fdB2 g4|e2A^c ecA2 f4|efed ^c2f2 efed|A2d2 ^cded d4|
|:c3d cd e2 fedc|=B3c Bcd2 edcB|c3d cde2 fed2|c6=B2 A4|
e3f efg2 agfe|f3g fga2 bagf|e3f efg2 agfe|f2g2 g3f/g/ a4:|
D4 F4 A4|d2ef gfed ^c4|a2df afd2 b4|g2ce gec2 a4|
f2Bd fdB2 g4|e2A^c ecA2 f4|efed ^c2f2 efed|A2d2 ^cded d4||

